public/cards/3-H.svg

<?xml version="1.0" encoding="UTF-8"?>
<svg width="360px" height="540px" viewBox="0 0 360 540" version="1.1" xmlns="http://www.w3.org/2000/svg" xmlns:xlink="http://www.w3.org/1999/xlink">
    <!-- Generator: Sketch 55.2 (78181) - https://sketchapp.com -->
    <title>3-H</title>
    <desc>Created with Sketch.</desc>
    <g id="Page-1" stroke="none" stroke-width="1" fill="none" fill-rule="evenodd">
        <g id="English_pattern_playing_cards_deck" transform="translate(-780.000000, -571.000000)" fill-rule="nonzero">
            <g id="3-H" transform="translate(780.000000, 570.637818)">
                <rect id="rect6472-18" stroke="#000000" stroke-width="0.99999976" fill="#FFFFFF" x="0.5" y="0.86218" width="359" height="539" rx="29.944447"></rect>
                <path d="M30,30.36208 C24.46,30.36208 20,34.82208 20,40.36208 L20,45.36208 L25,45.36208 L25,40.36208 C25,37.59208 27.23,35.36208 30,35.36208 C32.77,35.36208 35,37.59208 35,40.36208 L35,45.36208 C35,48.13208 32.77,50.36208 30,50.36208 L25,50.36208 L25,55.36208 L30,55.36208 C32.77,55.36208 35,57.59208 35,60.36208 L35,70.36208 C35,73.13208 32.77,75.36208 30,75.36208 C27.23,75.36208 25,73.13208 25,70.36208 L25,65.36208 L20,65.36208 L20,70.36208 C20,75.90208 24.46,80.36208 30,80.36208 C35.54,80.36208 40,75.90208 40,70.36208 L40,60.36208 C40,57.35848 38.67705,54.69208 36.59375,52.86208 C38.67705,51.03208 40,48.36568 40,45.36208 L40,40.36208 C40,34.82208 35.54,30.36208 30,30.36208 Z" id="rect3163-5-1-4-3-4-0" fill="#FF5555"></path>
                <path d="M330,510.3622 C335.54,510.3622 340,505.9022 340,500.3622 L340,495.3622 L335,495.3622 L335,500.3622 C335,503.1322 332.77,505.3622 330,505.3622 C327.23,505.3622 325,503.1322 325,500.3622 L325,495.3622 C325,492.5922 327.23,490.3622 330,490.3622 L335,490.3622 L335,485.36218 L330,485.36218 C327.23,485.36218 325,483.13218 325,480.36216 L325,470.36216 C325,467.59216 327.23,465.36216 330,465.36216 C332.77,465.36216 335,467.59216 335,470.36216 L335,475.36216 L340,475.36216 L340,470.36216 C340,464.82216 335.54,460.36216 330,460.36216 C324.46,460.36216 320,464.82216 320,470.36216 L320,480.36216 C320,483.36578 321.32295,486.03218 323.40625,487.8622 C321.32295,489.6922 320,492.3586 320,495.3622 L320,500.3622 C320,505.9022 324.46,510.3622 330,510.3622 L330,510.3622 Z" id="rect3163-5-1-4-3-4-0-4" fill="#FF5555"></path>
                <path d="M179,63.36218 C179,52.31649 173.28427,45.36218 165,45.36218 C156.71573,45.36218 150,54.31649 150,65.36218 C150.0349,66.31777 150.0182,67.25337 150,68.17468 C150,75.47316 152.67685,82.55152 155,89.17468 C157.38903,95.98564 160.83357,101.95535 164.0625,108.04968 C169.06373,117.48908 180,135.36218 180,135.36218 C180,135.36218 190.93627,117.48908 195.9375,108.04968 C199.16643,101.95535 202.61097,95.98564 205,89.17468 C207.32315,82.55152 210,75.47316 210,68.17468 C209.9716,67.20028 209.9814,66.26006 210,65.36218 C210,54.31649 203.28427,45.36218 195,45.36218 C186.71573,45.36218 181,52.31649 181,63.36218 C181,65.36218 179,65.36218 179,63.36218 Z" id="path3126-62" fill="#FF5555"></path>
                <path d="M179,243.36218 C179,232.31649 173.28427,225.36218 165,225.36218 C156.71573,225.36218 150,234.31649 150,245.36218 C150.0349,246.31777 150.0182,247.25337 150,248.17468 C150,255.47316 152.67685,262.55152 155,269.17468 C157.38903,275.98564 160.83357,281.95535 164.0625,288.04968 C169.06373,297.48908 180,315.36218 180,315.36218 C180,315.36218 190.93627,297.48908 195.9375,288.04968 C199.16643,281.95535 202.61097,275.98564 205,269.17468 C207.32315,262.55152 210,255.47316 210,248.17468 C209.9716,247.20028 209.9814,246.26006 210,245.36218 C210,234.31649 203.28427,225.36218 195,225.36218 C186.71573,225.36218 181,232.31649 181,243.36218 C181,245.36218 179,245.36218 179,243.36218 Z" id="path3126-1-14" fill="#FF5555"></path>
                <path d="M179,477.3622 C179,488.4079 173.28427,495.3622 165,495.3622 C156.71573,495.3622 150,486.40789 150,475.3622 C150.0349,474.40661 150.0182,473.47101 150,472.5497 C150,465.25122 152.67685,458.17286 155,451.5497 C157.38903,444.73874 160.83357,438.76903 164.0625,432.6747 C169.06373,423.2353 180,405.36218 180,405.36218 C180,405.36218 190.93627,423.2353 195.9375,432.6747 C199.16643,438.76903 202.61097,444.73874 205,451.5497 C207.32315,458.17286 210,465.25122 210,472.5497 C209.9716,473.5241 209.9814,474.46432 210,475.3622 C210,486.40789 203.28427,495.3622 195,495.3622 C186.71573,495.3622 181,488.4079 181,477.3622 C181,475.3622 179,475.3622 179,477.3622 L179,477.3622 Z" id="path3126-7-6" fill="#FF5555"></path>
                <path d="M29.5,99.36218 C29.5,93.83933 26.642135,90.36218 22.5,90.36218 C18.357865,90.36218 15,94.83933 15,100.36218 C15.01745,100.83998 15.0091,101.30777 15,101.76843 C15,105.41767 16.338425,108.95685 17.5,112.26843 C18.694515,115.67391 20.416785,118.65877 22.03125,121.70593 C24.531865,126.42563 30,135.36218 30,135.36218 C30,135.36218 35.468135,126.42563 37.96875,121.70593 C39.583215,118.65877 41.305485,115.67391 42.5,112.26843 C43.661575,108.95685 45,105.41767 45,101.76843 C44.9858,101.28123 44.9907,100.81112 45,100.36218 C45,94.83933 41.642135,90.36218 37.5,90.36218 C33.357865,90.36218 30.5,93.83933 30.5,99.36218 C30.5,100.36218 29.5,100.36218 29.5,99.36218 Z" id="path3126-1-4-2" fill="#FF5555"></path>
                <path d="M329.5,441.36218 C329.5,446.88503 326.64213,450.36218 322.5,450.36218 C318.35786,450.36218 315,445.88503 315,440.36218 C315.0174,439.88438 315.009,439.41659 315,438.95593 C315,435.30669 316.33842,431.76751 317.5,428.45593 C318.69452,425.05045 320.41678,422.06559 322.03125,419.01843 C324.53186,414.29873 330,405.36218 330,405.36218 C330,405.36218 335.46814,414.29873 337.96875,419.01843 C339.58321,422.06559 341.30548,425.05045 342.5,428.45593 C343.66157,431.76751 345,435.30669 345,438.95593 C344.9858,439.44313 344.991,439.91324 345,440.36218 C345,445.88503 341.64213,450.36218 337.5,450.36218 C333.35786,450.36218 330.5,446.88503 330.5,441.36218 C330.5,440.36218 329.5,440.36218 329.5,441.36218 Z" id="path3126-1-0" fill="#FF5555"></path>
            </g>
        </g>
    </g>
</svg>

<svg width="360" height="540" xmlns="http://www.w3.org/2000/svg"><g transform="translate(0 -.362)" fill-rule="nonzero" fill="none"><rect stroke="#000" fill="#FFF" x=".5" y=".862" width="359" height="539" rx="29.944"/><path d="M30 30.362c-5.54 0-10 4.46-10 10v5h5v-5c0-2.77 2.23-5 5-5s5 2.23 5 5v5c0 2.77-2.23 5-5 5h-5v5h5c2.77 0 5 2.23 5 5v10c0 2.77-2.23 5-5 5s-5-2.23-5-5v-5h-5v5c0 5.54 4.46 10 10 10s10-4.46 10-10v-10c0-3.004-1.323-5.67-3.406-7.5 2.083-1.83 3.406-4.496 3.406-7.5v-5c0-5.54-4.46-10-10-10zM330 510.362c5.54 0 10-4.46 10-10v-5h-5v5c0 2.77-2.23 5-5 5s-5-2.23-5-5v-5c0-2.77 2.23-5 5-5h5v-5h-5c-2.77 0-5-2.23-5-5v-10c0-2.77 2.23-5 5-5s5 2.23 5 5v5h5v-5c0-5.54-4.46-10-10-10s-10 4.46-10 10v10c0 3.004 1.323 5.67 3.406 7.5-2.083 1.83-3.406 4.497-3.406 7.5v5c0 5.54 4.46 10 10 10zM179 63.362c0-11.046-5.716-18-14-18-8.284 0-15 8.954-15 20 .035.956.018 1.891 0 2.813 0 7.298 2.677 14.377 5 21 2.389 6.81 5.834 12.78 9.063 18.875 5 9.44 15.937 27.312 15.937 27.312s10.936-17.873 15.938-27.312c3.228-6.095 6.673-12.064 9.062-18.875 2.323-6.623 5-13.702 5-21a56.086 56.086 0 010-2.813c0-11.046-6.716-20-15-20-8.284 0-14 6.954-14 18 0 2-2 2-2 0zM179 243.362c0-11.046-5.716-18-14-18-8.284 0-15 8.954-15 20 .035.956.018 1.891 0 2.813 0 7.298 2.677 14.377 5 21 2.389 6.81 5.834 12.78 9.063 18.875 5 9.44 15.937 27.312 15.937 27.312s10.936-17.873 15.938-27.312c3.228-6.095 6.673-12.064 9.062-18.875 2.323-6.623 5-13.702 5-21a56.086 56.086 0 010-2.813c0-11.046-6.716-20-15-20-8.284 0-14 6.954-14 18 0 2-2 2-2 0zM179 477.362c0 11.046-5.716 18-14 18-8.284 0-15-8.954-15-20 .035-.955.018-1.891 0-2.812 0-7.299 2.677-14.377 5-21 2.389-6.811 5.834-12.781 9.063-18.875 5-9.44 15.937-27.313 15.937-27.313s10.936 17.873 15.938 27.313c3.228 6.094 6.673 12.064 9.062 18.875 2.323 6.623 5 13.701 5 21a56.086 56.086 0 000 2.812c0 11.046-6.716 20-15 20-8.284 0-14-6.954-14-18 0-2-2-2-2 0zM29.5 99.362c0-5.523-2.858-9-7-9-4.142 0-7.5 4.477-7.5 10 .017.478.01.946 0 1.406 0 3.65 1.338 7.189 2.5 10.5 1.195 3.406 2.917 6.39 4.531 9.438 2.5 4.72 7.969 13.656 7.969 13.656s5.468-8.936 7.969-13.656c1.614-3.047 3.336-6.032 4.531-9.438 1.162-3.311 2.5-6.85 2.5-10.5-.014-.487-.01-.957 0-1.406 0-5.523-3.358-10-7.5-10-4.142 0-7 3.477-7 9 0 1-1 1-1 0zM329.5 441.362c0 5.523-2.858 9-7 9-4.142 0-7.5-4.477-7.5-10 .017-.478.009-.945 0-1.406 0-3.65 1.338-7.188 2.5-10.5 1.195-3.406 2.917-6.39 4.531-9.438 2.5-4.72 7.969-13.656 7.969-13.656s5.468 8.937 7.969 13.656c1.614 3.048 3.336 6.032 4.531 9.438 1.162 3.312 2.5 6.85 2.5 10.5-.014.487-.009.957 0 1.406 0 5.523-3.358 10-7.5 10-4.142 0-7-3.477-7-9 0-1-1-1-1 0z" fill="#F55"/></g></svg>
